!!!OTL: SCHOENSTES KIND AUF DIESER ERDE
!!!ARE: Europa, Mitteleuropa, Deutschland, Hessen, Odenwald, Lindenfels
!!!SCT: E0545
!!!YEM: Copyright 1995, estate of Helmut Schaffrath.
**kern
*ICvox
*Ivox
*M4/4
*k[f#]
*G:
=1
{4.g
8d
4g
4a
=2
8.b
16a
8b
8cc
4b
4a}
=3
{4.b
8a
8.b
16cc
8dd
8ee
=4
4dd
8cc
8b
4b
4a}
=5
{4.dd
8cc
4b
4dd
=6
4.dd
8cc
4cc
4b
=7
8b
8cc
4a}
{4.dd
8cc
=8
8b
8ee
8dd
8cc
4b
4a
=9
2g
2r}
=10
{4.dd
8cc
4b
4dd
=11
4.dd
8cc
4cc
4b
=12
8b
8cc
4a}
{4.dd
8cc
=13
8b
8ee
8dd
8cc
4b
4a
=14
2g
2r}
==
!!!AGN: Liebes - Lied
!!!ONB: ESAC (Essen Associative Code) Database: ERK1
!!!AMT: simple quadruple
!!!AIN: vox
!!!EED: Helmut Schaffrath
!!!EEV: 1.0
*-
